assets/Musical notes/Flat/musical_notes_flat.svg

<svg width="32" height="32" viewBox="0 0 32 32" fill="none" xmlns="http://www.w3.org/2000/svg">
<path d="M14.3599 3.00421L8.21995 3.80421C7.89995 3.84421 7.65995 4.12421 7.65995 4.44421V12.0642C7.08995 11.8642 6.45995 11.7842 5.79995 11.8542C3.74995 12.0742 2.12995 13.7742 1.99995 15.8342C1.83995 18.3242 3.80995 20.3842 6.26995 20.3842C8.62995 20.3842 10.5499 18.4742 10.5499 16.1042C10.5499 16.0142 10.5499 15.9242 10.5399 15.8342V8.00421C10.5399 7.72421 10.7499 7.48421 11.0299 7.44421L14.4899 6.99421C14.7499 6.96421 14.9499 6.73421 14.9499 6.46421V3.53421C14.9599 3.21421 14.6799 2.96421 14.3599 3.00421Z" fill="#402A32"/>
<path d="M29.4 5.37423L23.26 6.17423C22.94 6.21423 22.7 6.48423 22.7 6.80423V16.8142C22.13 16.6142 21.5 16.5342 20.84 16.6042C18.79 16.8242 17.17 18.5242 17.04 20.5842C16.88 23.0742 18.85 25.1342 21.31 25.1342C23.67 25.1342 25.59 23.2242 25.59 20.8542C25.59 20.7642 25.59 20.6742 25.58 20.5842V10.3742C25.58 10.0942 25.79 9.85423 26.07 9.81423L29.53 9.36423C29.8 9.32423 30 9.10423 30 8.83423V5.89423C30 5.57423 29.72 5.33423 29.4 5.37423Z" fill="#402A32"/>
<path d="M13.09 10.6543L19.23 9.85429C19.55 9.80429 19.83 10.0543 19.83 10.3743V13.3043C19.83 13.5743 19.63 13.8043 19.37 13.8343L15.91 14.2843C15.63 14.3243 15.42 14.5643 15.42 14.8443V25.0643C15.43 25.1543 15.43 25.2443 15.43 25.3343C15.43 27.7043 13.51 29.6143 11.15 29.6143C8.68995 29.6143 6.71995 27.5543 6.87995 25.0643C6.99995 23.0043 8.61995 21.3143 10.67 21.0943C11.33 21.0243 11.96 21.1043 12.53 21.3043V11.2943C12.53 10.9643 12.77 10.6943 13.09 10.6543Z" fill="#402A32"/>
</svg>

<svg xmlns="http://www.w3.org/2000/svg" width="32" height="32" fill="none"><path fill="#402A32" d="m14.36 3.004-6.14.8c-.32.04-.56.32-.56.64v7.62c-.57-.2-1.2-.28-1.86-.21-2.05.22-3.67 1.92-3.8 3.98a4.268 4.268 0 0 0 4.27 4.55c2.36 0 4.28-1.91 4.28-4.28 0-.09 0-.18-.01-.27v-7.83c0-.28.21-.52.49-.56l3.46-.45a.53.53 0 0 0 .46-.53v-2.93a.52.52 0 0 0-.59-.53ZM29.4 5.374l-6.14.8c-.32.04-.56.31-.56.63v10.01c-.57-.2-1.2-.28-1.86-.21-2.05.22-3.67 1.92-3.8 3.98a4.268 4.268 0 0 0 4.27 4.55c2.36 0 4.28-1.91 4.28-4.28 0-.09 0-.18-.01-.27v-10.21c0-.28.21-.52.49-.56l3.46-.45c.27-.04.47-.26.47-.53v-2.94c0-.32-.28-.56-.6-.52Z"/><path fill="#402A32" d="m13.09 10.654 6.14-.8c.32-.05.6.2.6.52v2.93c0 .27-.2.5-.46.53l-3.46.45a.57.57 0 0 0-.49.56v10.22c.01.09.01.18.01.27 0 2.37-1.92 4.28-4.28 4.28-2.46 0-4.43-2.06-4.27-4.55.12-2.06 1.74-3.75 3.79-3.97.66-.07 1.29.01 1.86.21v-10.01c0-.33.24-.6.56-.64Z"/></svg>
